OBS Studio/Fluent Dark Grey/sources/image.svg

<svg viewBox="64 64 896 896" xmlns="http://www.w3.org/2000/svg"><path d="m772 64c25 1e-4 48.917 5.0834 71.75 15.25 22.833 10.167 42.833 23.833 60 41s30.833 37.167 41 60 15.25 46.75 15.25 71.75v520c0 25-5.083 48.917-15.25 71.75s-23.833 42.833-41 60-37.167 30.833-60 41-46.75 15.25-71.75 15.25h-520c-25 0-48.917-5.083-71.75-15.25s-42.833-23.833-60-41-30.833-37.167-41-60-15.25-46.75-15.25-71.75v-520c0-25 5.0833-48.917 15.25-71.75s23.833-42.833 41-60 37.167-30.833 60-41c22.833-10.167 46.75-15.25 71.75-15.25zm-626 769 287-287c10.667-10.667 22.75-18.75 36.25-24.25s27.75-8.25 42.75-8.25 29.25 2.75 42.75 8.25 25.583 13.583 36.25 24.25l287 287c6-9.667 10.5-20 13.5-31s4.5-22.333 4.5-34v-514.5c0-16.667-3.417-32.583-10.25-47.75s-16-28.5-27.5-40-24.833-20.667-40-27.5-31.083-10.25-47.75-10.25h-517c-16.667 0-32.583 3.417-47.75 10.25s-28.5 16-40 27.5-20.667 24.833-27.5 40-10.25 31.083-10.25 47.75v514.5c0 11.667 1.5 23 4.5 34s7.5 21.333 13.5 31zm430-481c0-13 2.5-25.333 7.5-37s11.917-21.917 20.75-30.75 19.083-15.75 30.75-20.75 24-7.5 37-7.5 25.333 2.5 37 7.5 21.917 11.917 30.75 20.75 15.75 19.083 20.75 30.75 7.5 24 7.5 37-2.5 25.333-7.5 37-11.917 21.917-20.75 30.75-19.083 15.75-30.75 20.75-24 7.5-37 7.5-25.333-2.5-37-7.5-21.917-11.917-30.75-20.75-15.75-19.083-20.75-30.75-7.5-24-7.5-37zm64 0c0 8.667 3.167 16.167 9.5 22.5s13.833 9.5 22.5 9.5 16.167-3.167 22.5-9.5 9.5-13.833 9.5-22.5-3.167-16.167-9.5-22.5-13.833-9.5-22.5-9.5-16.167 3.167-22.5 9.5-9.5 13.833-9.5 22.5zm128 544c23.667 0 45.333-6 65-18l-287-287c-9.333-9.333-20.667-14-34-14s-24.667 4.667-34 14l-287 287c9.667 6 20 10.5 31 13.5s22.333 4.5 34 4.5z" fill="#fff"></path></svg>

<!-- Exported by Character Map UWP -->
<svg height="100%" viewBox="64 64 896 896" width="100%" xmlns="http://www.w3.org/2000/svg" xmlns:xlink="http://www.w3.org/1999/xlink">
  <path d="M772,64C797,64.0001 820.917,69.0834 843.75,79.25C866.583,89.4167 886.583,103.083 903.75,120.25C920.917,137.417 934.583,157.417 944.75,180.25C954.917,203.083 960,227 960,252L960,772C960,797 954.917,820.917 944.75,843.75C934.583,866.583 920.917,886.583 903.75,903.75C886.583,920.917 866.583,934.583 843.75,944.75C820.917,954.917 797,960 772,960L252,960C227,960 203.083,954.917 180.25,944.75C157.417,934.583 137.417,920.917 120.25,903.75C103.083,886.583 89.4167,866.583 79.25,843.75C69.0833,820.917 64,797 64,772L64,252C64,227 69.0833,203.083 79.25,180.25C89.4167,157.417 103.083,137.417 120.25,120.25C137.417,103.083 157.417,89.4167 180.25,79.25C203.083,69.0834 227,64.0001 252,64ZM146,833L433,546C443.667,535.333 455.75,527.25 469.25,521.75C482.75,516.25 497,513.5 512,513.5C527,513.5 541.25,516.25 554.75,521.75C568.25,527.25 580.333,535.333 591,546L878,833C884,823.333 888.5,813 891.5,802C894.5,791 896,779.667 896,768L896,253.5C896,236.833 892.583,220.917 885.75,205.75C878.917,190.583 869.75,177.25 858.25,165.75C846.75,154.25 833.417,145.083 818.25,138.25C803.083,131.417 787.167,128 770.5,128L253.5,128C236.833,128 220.917,131.417 205.75,138.25C190.583,145.083 177.25,154.25 165.75,165.75C154.25,177.25 145.083,190.583 138.25,205.75C131.417,220.917 128,236.833 128,253.5L128,768C128,779.667 129.5,791 132.5,802C135.5,813 140,823.333 146,833ZM576,352C576,339 578.5,326.667 583.5,315C588.5,303.333 595.417,293.083 604.25,284.25C613.083,275.417 623.333,268.5 635,263.5C646.667,258.5 659,256 672,256C685,256 697.333,258.5 709,263.5C720.667,268.5 730.917,275.417 739.75,284.25C748.583,293.083 755.5,303.333 760.5,315C765.5,326.667 768,339 768,352C768,365 765.5,377.333 760.5,389C755.5,400.667 748.583,410.917 739.75,419.75C730.917,428.583 720.667,435.5 709,440.5C697.333,445.5 685,448 672,448C659,448 646.667,445.5 635,440.5C623.333,435.5 613.083,428.583 604.25,419.75C595.417,410.917 588.5,400.667 583.5,389C578.5,377.333 576,365 576,352ZM640,352C640,360.667 643.167,368.167 649.5,374.5C655.833,380.833 663.333,384 672,384C680.667,384 688.167,380.833 694.5,374.5C700.833,368.167 704,360.667 704,352C704,343.333 700.833,335.833 694.5,329.5C688.167,323.167 680.667,320 672,320C663.333,320 655.833,323.167 649.5,329.5C643.167,335.833 640,343.333 640,352ZM768,896C791.667,896 813.333,890 833,878L546,591C536.667,581.667 525.333,577 512,577C498.667,577 487.333,581.667 478,591L191,878C200.667,884 211,888.5 222,891.5C233,894.5 244.333,896 256,896Z" fill="#FFFFFF" fill-opacity="1">
  </path>
</svg>
